assets/Ship/Flat/ship_flat.svg

<svg width="32" height="32" viewBox="0 0 32 32" fill="none" xmlns="http://www.w3.org/2000/svg">
<path d="M20 9L22 6H27V9H30V15L22 16L14 15L15.5646 9.43999C15.6335 9.17999 15.8696 9 16.1353 9H20Z" fill="#CDC4D6"/>
<path d="M22 16H30V23L17 26L4 23L2.03838 17.2837C1.85708 16.6418 2.34056 16 3.01543 16H22Z" fill="#CDC4D6"/>
<path d="M24.66 12.99H25.33C25.7 12.99 25.99 12.69 25.99 12.33V11.66C25.99 11.29 25.69 11 25.33 11H24.66C24.29 11 24 11.3 24 11.66V12.33C24 12.7 24.29 12.99 24.66 12.99Z" fill="#26EAFC"/>
<path d="M4 23L5.801 29.2731C5.9204 29.7013 6.31841 30 6.76617 30H28.995C29.5522 30 30 29.5519 30 29.0043V23H4Z" fill="#CA0B4A"/>
<path d="M21 11C21.54 11 22 11 22 12C22 12.9821 21.5563 12.99 21.0289 12.9995L21 13H14.5665L15.1242 11H21Z" fill="#00A6ED"/>
<path d="M15.3362 21H14.6638C14.3017 21 14 20.6983 14 20.3362V19.6638C14 19.3017 14.2931 19 14.6638 19H15.3362C15.6983 19 16 19.2931 16 19.6638V20.3362C16 20.6983 15.7069 21 15.3362 21Z" fill="#00A6ED"/>
<path d="M18.6638 21H19.3362C19.7069 21 20 20.6983 20 20.3362V19.6638C20 19.2931 19.6983 19 19.3362 19H18.6638C18.2931 19 18 19.3017 18 19.6638V20.3362C18 20.6983 18.2931 21 18.6638 21Z" fill="#00A6ED"/>
<path d="M23.3362 21H22.6638C22.2931 21 22 20.6983 22 20.3362V19.6638C22 19.3017 22.2931 19 22.6638 19H23.3362C23.6983 19 24 19.2931 24 19.6638V20.3362C24 20.6983 23.7069 21 23.3362 21Z" fill="#00A6ED"/>
<path d="M26.6638 21H27.3362C27.7069 21 28 20.6983 28 20.3362V19.6638C28 19.2931 27.6983 19 27.3362 19H26.6638C26.2931 19 26 19.3017 26 19.6638V20.3362C26 20.6983 26.2931 21 26.6638 21Z" fill="#00A6ED"/>
<path d="M25.33 12.99H24.66C24.29 12.99 24 12.7 24 12.33V11.66C24 11.3 24.29 11 24.66 11H25.33C25.69 11 25.99 11.29 25.99 11.66V12.33C25.99 12.69 25.7 12.99 25.33 12.99Z" fill="#00A6ED"/>
<path d="M30.01 27.6699C28.26 27.6699 28.26 28.7899 26.5 28.7899C24.75 28.7899 24.75 27.6699 22.99 27.6699C21.24 27.6699 21.24 28.7899 19.49 28.7899C17.74 28.7899 17.74 27.6699 15.99 27.6699C14.24 27.6699 14.24 28.7899 12.49 28.7899C10.74 28.7899 10.74 27.6699 8.99 27.6699C7.24 27.6699 7.24 28.7899 5.5 28.7899C3.75 28.7899 3.75 27.6699 2 27.6699V29.9899H30L30.01 27.6699Z" fill="#00A6ED"/>
<path d="M26.5962 4C26.8077 4 26.9904 4.18091 26.9904 4.41206H27V6H22L22.6635 4.84422C22.9615 4.3216 23.5096 4 24.0962 4H26.5962Z" fill="#533566"/>
<path d="M5 16H30V15H5.58C5.26 15 5 15.2626 5 15.5859V16Z" fill="#533566"/>
</svg>

<svg xmlns="http://www.w3.org/2000/svg" width="32" height="32" fill="none"><path fill="#CDC4D6" d="m20 9 2-3h5v3h3v6l-8 1-8-1 1.565-5.56a.592.592 0 0 1 .57-.44H20Z"/><path fill="#CDC4D6" d="M22 16h8v7l-13 3-13-3-1.962-5.716A1.011 1.011 0 0 1 3.015 16H22Z"/><path fill="#26EAFC" d="M24.66 12.99h.67c.37 0 .66-.3.66-.66v-.67c0-.37-.3-.66-.66-.66h-.67c-.37 0-.66.3-.66.66v.67c0 .37.29.66.66.66Z"/><path fill="#CA0B4A" d="m4 23 1.801 6.273c.12.428.517.727.965.727h22.229A1 1 0 0 0 30 29.004V23H4Z"/><path fill="#00A6ED" d="M21 11c.54 0 1 0 1 1 0 .982-.444.99-.971 1h-6.463l.558-2H21ZM15.336 21h-.672a.67.67 0 0 1-.664-.664v-.672c0-.362.293-.664.664-.664h.672c.362 0 .664.293.664.664v.672a.664.664 0 0 1-.664.664ZM18.664 21h.672c.37 0 .664-.302.664-.664v-.672a.664.664 0 0 0-.664-.664h-.672a.664.664 0 0 0-.664.664v.672c0 .362.293.664.664.664ZM23.336 21h-.672a.664.664 0 0 1-.664-.664v-.672c0-.362.293-.664.664-.664h.672c.362 0 .664.293.664.664v.672a.664.664 0 0 1-.664.664ZM26.664 21h.672c.37 0 .664-.302.664-.664v-.672a.664.664 0 0 0-.664-.664h-.672a.664.664 0 0 0-.664.664v.672c0 .362.293.664.664.664ZM25.33 12.99h-.67c-.37 0-.66-.29-.66-.66v-.67c0-.36.29-.66.66-.66h.67c.36 0 .66.29.66.66v.67c0 .36-.29.66-.66.66ZM30.01 27.67c-1.75 0-1.75 1.12-3.51 1.12-1.75 0-1.75-1.12-3.51-1.12-1.75 0-1.75 1.12-3.5 1.12s-1.75-1.12-3.5-1.12-1.75 1.12-3.5 1.12-1.75-1.12-3.5-1.12-1.75 1.12-3.49 1.12c-1.75 0-1.75-1.12-3.5-1.12v2.32h28l.01-2.32Z"/><path fill="#533566" d="M26.596 4c.212 0 .394.18.394.412H27V6h-5l.663-1.156A1.656 1.656 0 0 1 24.096 4h2.5ZM5 16h25v-1H5.58c-.32 0-.58.263-.58.586V16Z"/></svg>
